X:16
T:Late Nights in a Foreign Land
M:4/4
L:1/8
R:Reel
C:Gris Sanderson
Q:450
N:This was meant to be a kind of Swedish-style halling, but like 
N:so many of my tunes it's really more of a reel. It is on the 
N:Spyka album. The title is to remind me of those times when 
N:you are out late in a strange land, when things can start to get 
N:a little out of control.
K:Dmix
DEFG A2Ac|_BGAF GBAF|G2GE FAGE|FDEC DCA,C|
DEFG A2Ac|_BGAF GBA2|G3E FAGE|1FDEC D2DC:|2FDEC D2DA||
|:d3d ^cAcd|^cAcd =c2c2|~A2_BG A2AF|G_BAG AFD2|
d2d_B BccA|_BdcA BGAF|G2GE FAGE|1FDEC D2DA:|2FDEC D2D2||
|:a2bg ageg|~=f2fa gefd|e3a3a2|e3a3a2|
abbg a=fge|=fde^c ~d2Bd|^cABG AB^cd|eg=fd e^cdA:||
